!!!OTL: Die geladene G&auml;rtnerin (65b), S. 198
!!!id: T0214
**kern
*clefG2
*k[f#]
*G:
{8d
=1
4g
8b
8g
4.d
8d
=2
4e
8f#
8g
4.g
8e
=3
4e
2d}
8r
=4
{8d
=5
8d
8cc
8cc
8dd
4b
4b
=6
4a
4d
4g}
8r
=7
{8b
=8
8g
8a
8b
8cc
4.dd
8d
=9
4g
4b
4dd
4b
=10
4b
2a}
8r
=11
{8d
=12
8d
8cc
8cc
8dd
4b
4b
=13
4a
4a
4g}
8r
=14
{8b
=15
8g
8a
8b
8cc
4.dd
8d
=16
4g
4b
4dd
4b
=17
4b
2a}
8r
=18
{8d
=19
8d
8cc
8cc
8dd
4b
4b
=20
4a
4a
4g}
8r
==
*-
!!!minrhy: 8
!!!meters: 4/4 ]  ZZ[6
!!!cut: Die geladene G&auml;rtnerin (65b), S. 198
!!!reg: Luxemburg
!!!trd: Singendes Volk, Esch-Alzette 1937 posth.
!!!rhy1: X  X_XXX_.X  X_XXX_.X  X_X__0
!!!rhy2: X  XXXXX_X_  X_X_X_0
!!!key: T0214  08  G 4/4 ]  ZZ[6
!!!mod: HEPTATONIK IONISCH]  AMBITUS[8
!!!kad: -512121
!!!akz: 1-5-61-6-5_-5321_151532_-5321_151532_-5321_
!!!fot: 'a__b__c__bv_c__bv_
!!!for: 'a__b__c__b__c__b__
!!!fok: 'M__~a_Sd_^a_Sd_^a_
!! PHRAS[AUFTAKTIG]
!!!fkt: Liebeslieder
!!!bem: StraPen, fff Witry, 10.1.1933
!! THILL, Mathias:
!! PR[20] 2K[5] 2G[25] 3K[5] 3G[2] 4A[5] 4Ü[0] 5A[0] 6K[0] 6G[0]
!! 7K[0] 7G[0] 8A[0] MEHR[0] SI[41] ABS[44] SR[30] SP[11]
!! ST[16] 2k[7] 2g[23] 3k[5] 3g[2] 4d[0] 4ü[0] 5d[2] 6k[0] 6g[0]
!! 7k[0] 7g[0] 8d[0] mehr[0] si[39] dm[+2] sr[30] sp[9]
!! 1F[69] 2F[31] 3F[0] 4F[0] LF[0] 2P[0] 3P[0] 4P[0] TRI[0] DF[2] AB[49]
!! TF[0] U3K[0] U3[0] U4[0] U4Ü[0] U5[2] U6K[0] U6[0] U7K[0] U7[0]
!! N1[9] N2K[0] N2[13] N3K[0] N3[22] N4[18] N4Ü[0] N5[27] N6K[0] N6[7]
!!!n7k: 0] N7[0] O1[2] O2K[0] O2[0] O3K[0] O3[0] HÖ[0
!!!RNB: symbol: &auml;      = a umlaut  (UTF-8: Å„)
